X: 21261
T: Under the Green wood Tree
%R: jig
B: James Oswald "The Caledonian Pocket Companion" v.2 p.126 #1
Z: 2018 John Chambers <jc:trillian.mit.edu>
M: 6/8
L: 1/8
K: D
"_Brisk"d |\
a2a a2g | Tf2e def | e2A B2c | d3- d2 :: d |\
(Tc2B) (c2d) | efe A2f | (Te2d) (e2f) | g3 g2a |
Tf>ed e2A | Tf>ef g2f | e>dc TB2A | A3- A2 :: A |\
dfa ceg | (f/g/)ag fed | ecA (B2c) | d3- d2 :|
|: d |\
c2A (d2A) | (e2A) (f2A) | (afd) e2f | g3- g2a |\
(fd)f (ec)A | (a2f) (g2f) | edc TB2A | A3- A2 :|


